X: 5
T: Polska efter Albin Jansson
M: 3/4
L: 1/16
K: Amin
O: Häverö
Q: 120
|:e3c B2^G2 A2c2| B2A^G A2B2 c2d2| e3c B2^G2 A2c2|[1 B2A^G A4E4 :|[2 B2A^G A8|]
|:C3E =G2c2 e2c2| c2Bc d2e2 f4| d3B G2B2 d2B2| c2d2 e2f2 e4 :: A2AA A2ce A2ce|
E2EE E2^GB E2GB| A2AA A2ce A2ce| E2EE E2^GB A4| e2c2 (Bc)BA A2B2|
(cBA^G) A8 :: c2c2 (E2c2) c2Bc| d2d2 (D2d2) d4| (Bc)BA G2B2 (3BcBAB| c2c2 (E2c2) c4 :|